packages/core/src/svgs/tokens/branded/OMI.svg

<svg width="24" height="24" viewBox="0 0 24 24" fill="none" xmlns="http://www.w3.org/2000/svg">
<path fill-rule="evenodd" clip-rule="evenodd" d="M12.8837 3.40939C12.9161 3.24912 12.9147 3.08386 12.8797 2.92415C12.8448 2.76443 12.7767 2.61378 12.6802 2.48181C12.5836 2.34983 12.4607 2.23943 12.3191 2.15766C12.1775 2.07588 12.0205 2.02453 11.8579 2.00687C11.6953 1.98922 11.5309 2.00566 11.375 2.05514C11.2191 2.10461 11.0753 2.18605 10.9528 2.29423C10.8301 2.40241 10.7315 2.53496 10.663 2.68343C10.5944 2.8319 10.5576 2.99303 10.5549 3.15651C8.79071 3.20944 7.15587 3.79752 5.82095 4.76195C5.79096 4.67089 5.73916 4.58855 5.67006 4.52208C5.60097 4.45563 5.51666 4.40707 5.42451 4.38064C5.33235 4.35421 5.23513 4.35071 5.1413 4.37046C5.04749 4.39019 4.95992 4.43258 4.88623 4.4939C4.81253 4.55522 4.75496 4.63364 4.7185 4.72231C4.68204 4.81098 4.66781 4.90721 4.67706 5.00264C4.68631 5.09807 4.71875 5.18978 4.77155 5.26981C4.82435 5.34983 4.89591 5.41572 4.98001 5.46176C4.05449 6.33075 3.33774 7.39803 2.8835 8.58353C2.42925 9.76903 2.24933 11.042 2.3572 12.3069C2.31929 12.4567 2.3113 12.6126 2.33368 12.7656L2.32192 13.2478C2.32579 15.3077 3.08032 17.2956 4.44423 18.8391C5.80815 20.3827 7.68793 21.3762 9.73158 21.6338C11.5516 22.1839 13.5029 22.1125 15.2779 21.4311C17.0529 20.7497 18.5505 19.4968 19.5348 17.8701L19.6701 17.8819C19.843 17.8817 20.0121 17.8308 20.1564 17.7353C20.3006 17.6398 20.4136 17.5041 20.4813 17.3449C20.5489 17.1858 20.5684 17.0101 20.537 16.84C20.5057 16.67 20.4252 16.5127 20.3052 16.3881C21.2493 14.695 21.5777 12.7271 21.2343 10.819C21.3856 10.7809 21.5155 10.6842 21.5955 10.5501C21.6755 10.4162 21.699 10.2559 21.6607 10.1046C21.6225 9.95335 21.5258 9.82339 21.3917 9.74343C21.2577 9.66348 21.0974 9.64003 20.9462 9.67824C20.572 8.53186 19.9564 7.47907 19.1408 6.59086C19.2105 6.53994 19.268 6.47432 19.3096 6.39863C19.351 6.32296 19.3753 6.23908 19.3807 6.15295C19.3862 6.06682 19.3726 5.98056 19.3409 5.90028C19.3092 5.82 19.2603 5.74768 19.1975 5.68844C19.1348 5.62919 19.0597 5.58449 18.9778 5.55749C18.8958 5.5305 18.8089 5.52187 18.7233 5.53223C18.6375 5.54259 18.5552 5.57168 18.482 5.61743C18.4089 5.66318 18.3466 5.72447 18.2998 5.79697C17.2107 4.89471 15.9127 4.28005 14.5244 4.00922C14.007 3.75636 13.4541 3.55053 12.8837 3.40939ZM18.2175 5.97927C17.3293 5.23084 16.2933 4.67781 15.1772 4.35619C15.3184 4.43852 15.4594 4.53261 15.6006 4.6267C17.527 5.62878 18.9929 7.33484 19.6935 9.39009C20.7373 11.269 21.0255 13.475 20.4993 15.5589C21.1475 14.064 21.3359 12.4098 21.0403 10.8074C20.9283 10.788 20.8243 10.7367 20.741 10.6596C20.6576 10.5825 20.5983 10.4829 20.5703 10.3727C20.5424 10.2626 20.5469 10.1468 20.5832 10.0392C20.6197 9.93167 20.6866 9.83689 20.7756 9.76646C20.4035 8.61658 19.7831 7.56258 18.9585 6.67908C18.859 6.70924 18.7532 6.71245 18.6519 6.6884C18.5508 6.66433 18.4578 6.61385 18.3824 6.54211C18.3071 6.47037 18.2521 6.37993 18.2231 6.28001C18.1942 6.1801 18.1922 6.07429 18.2175 5.97339V5.97927ZM5.26228 5.53233H5.1917C4.37275 6.28156 3.71399 7.18885 3.25513 8.19955C2.7963 9.21024 2.54685 10.3034 2.52186 11.4131C2.8747 9.8429 3.65684 8.4374 4.75653 7.32595C6.09146 5.38531 8.23205 4.03274 10.6961 3.73871C10.6372 3.62109 10.5844 3.48583 10.5667 3.34471C8.80247 3.39763 7.17351 3.99746 5.85035 4.98542C5.83992 5.13415 5.77338 5.27336 5.66421 5.37489C5.55503 5.47643 5.41138 5.5327 5.26228 5.53233ZM20.0994 16.2294C20.7592 14.345 20.7152 12.2856 19.9759 10.431C20.2276 11.693 20.1867 12.9957 19.8564 14.2395C19.526 15.4832 18.9151 16.6347 18.0705 17.6055C17.7412 18.1523 17.3471 18.664 16.9002 19.1227C16.9532 19.2285 16.9884 19.3402 17.012 19.4637C17.8176 18.9933 18.5409 18.4052 19.1467 17.7054C18.9736 17.5697 18.8575 17.3742 18.821 17.1574C18.7846 16.9404 18.8304 16.7177 18.9498 16.5329C19.0691 16.3481 19.2531 16.2144 19.4657 16.1583C19.6784 16.1022 19.9044 16.1276 20.0994 16.2294ZM19.3114 17.8054C18.6619 18.5579 17.8857 19.1908 17.0178 19.6754C17.0107 19.8957 16.9416 20.1093 16.8188 20.2922C16.696 20.4751 16.5244 20.6199 16.3233 20.7101C16.1223 20.8001 15.9 20.8319 15.6819 20.8019C15.4635 20.7718 15.2581 20.6811 15.0889 20.5399C13.8075 21.2898 12.3513 21.6894 10.8666 21.6984C12.506 21.97 14.1889 21.7456 15.7 21.0541C17.2109 20.3625 18.4807 19.2354 19.3466 17.8171C19.3347 17.8135 19.323 17.8096 19.3114 17.8054ZM12.7602 3.75047L12.8308 3.5917C13.1601 3.67403 13.4776 3.77399 13.7894 3.89749L13.4718 3.86808C13.2365 3.82104 13.0013 3.77988 12.7661 3.75047H12.7602ZM11.1724 4.22093C11.3882 4.33573 11.6345 4.38043 11.8768 4.34882C12.1193 4.3172 12.3458 4.21083 12.525 4.04451C12.8327 4.0317 13.1409 4.03562 13.4482 4.05627C14.1716 4.21505 14.8597 4.46792 15.5006 4.79724L15.7359 4.9619C15.5544 4.92477 15.3658 4.9457 15.1971 5.02169C15.0282 5.09768 14.8875 5.22491 14.7949 5.38531C14.112 5.17001 13.4046 5.04157 12.6897 5.00307C11.4925 4.73172 10.2508 4.72169 9.04948 4.97366C9.7191 4.62478 10.4333 4.36953 11.1724 4.21505V4.22093ZM16.4357 5.82637C16.4357 5.70288 16.4121 5.58525 16.3651 5.47352C16.8415 5.9087 17.2707 6.39092 17.6353 6.92607C17.2493 6.60822 16.836 6.32485 16.4003 6.07923C16.4239 5.9969 16.4357 5.91457 16.4357 5.82637ZM18 7.50238C17.4956 7.01843 16.9324 6.5996 16.3239 6.25565C16.2475 6.39092 16.1476 6.49677 16.0123 6.5791C17.5748 7.79051 18.6632 9.51145 19.0879 11.4424C19.0637 10.0583 18.6894 8.70281 18 7.50238ZM13.7717 5.3265C14.0893 5.38532 14.4068 5.46764 14.7126 5.56173C14.6957 5.61537 14.6837 5.67051 14.6773 5.7264C14.3832 5.57349 14.0834 5.44413 13.7717 5.3265ZM12.6602 5.19714C13.3718 5.35591 14.0482 5.60879 14.6773 5.94398C14.6944 6.07156 14.7393 6.19384 14.8087 6.30224C14.8782 6.41063 14.9705 6.50252 15.0792 6.57145C15.188 6.64038 15.3104 6.68468 15.438 6.70124C15.5658 6.7178 15.6954 6.70622 15.8182 6.66731C17.3471 7.82581 18.4528 9.49594 18.8879 11.419C18.8033 11.4043 18.7164 11.4084 18.6335 11.431C18.5507 11.4535 18.4737 11.494 18.4081 11.5495C18.3425 11.605 18.2898 11.6742 18.2538 11.7523C18.2179 11.8302 18.1995 11.9153 18.1999 12.0012C18.2002 12.1002 18.2254 12.1978 18.2736 12.2845C18.3216 12.3712 18.3908 12.4444 18.4748 12.4972C18.5586 12.55 18.6545 12.5808 18.7535 12.5865C18.8525 12.5923 18.9513 12.5731 19.0408 12.5304C18.9103 13.6645 18.5467 14.7594 17.9727 15.7461C17.3989 16.733 16.627 17.5904 15.7059 18.2647C14.7847 18.939 13.7341 19.4156 12.62 19.6645C11.5058 19.9132 10.3524 19.929 9.23184 19.7107C8.52608 19.3638 7.87921 18.9228 7.3029 18.3993C7.38329 18.3568 7.45274 18.2963 7.50577 18.2223C7.55881 18.1485 7.59396 18.0633 7.60851 17.9735C7.62304 17.8837 7.61656 17.7917 7.58956 17.7049C7.56255 17.618 7.51577 17.5387 7.45289 17.473C7.39002 17.4072 7.31275 17.357 7.22717 17.3261C7.14158 17.2954 7.05003 17.2848 6.95969 17.2954C6.86935 17.306 6.78269 17.3374 6.70652 17.3871C6.63037 17.4367 6.56678 17.5034 6.52076 17.5819C5.45047 16.3058 4.75653 14.7004 4.62128 12.9362C4.69749 12.6877 4.68922 12.4209 4.59776 12.1775C4.62128 10.8956 4.92708 9.69 5.4681 8.61384C5.9268 7.99047 6.46782 7.42592 7.07942 6.94959C7.11384 7.02873 7.16527 7.09935 7.23005 7.15639C7.29481 7.21344 7.37135 7.25553 7.45423 7.27966C7.5371 7.30381 7.62427 7.30941 7.70955 7.29607C7.79482 7.28275 7.87612 7.25081 7.94767 7.20252C8.01921 7.15425 8.07926 7.0908 8.12354 7.0167C8.1678 6.9426 8.19522 6.85967 8.20385 6.7738C8.21247 6.68792 8.20207 6.60118 8.1734 6.51977C8.14474 6.43836 8.09851 6.36425 8.03798 6.30271C9.43862 5.49299 11.0447 5.10881 12.6602 5.19714ZM7.86743 6.17921C8.96126 5.53233 10.208 5.12068 11.5428 5.0207C10.4999 4.92922 9.44878 5.03291 8.44376 5.3265C7.50284 5.91457 6.70305 6.69084 6.06794 7.60234C6.36197 7.29067 6.68542 7.0084 7.0265 6.74376V6.70847C7.02678 6.60933 7.05212 6.51187 7.10017 6.42514C7.14823 6.33841 7.21741 6.26525 7.30133 6.21243C7.38524 6.15962 7.48114 6.12888 7.58012 6.12308C7.67909 6.11727 7.77793 6.13658 7.86743 6.17921ZM6.4443 17.7936C5.3444 16.5173 4.65387 14.9395 4.46251 13.2655C4.31925 13.4684 4.11546 13.6207 3.88031 13.7006C3.89207 14.1888 3.94499 14.6651 4.03908 15.1238C4.73225 16.8538 5.99032 18.2983 7.60868 19.2226C7.90273 19.3461 8.20853 19.458 8.5202 19.5403C8.0056 19.2348 7.52464 18.8762 7.0853 18.47H7.0265C6.94174 18.47 6.85797 18.4519 6.78092 18.4166C6.70386 18.3812 6.63534 18.3298 6.58005 18.2655C6.52475 18.2013 6.484 18.1259 6.46058 18.0445C6.43714 17.963 6.4316 17.8775 6.4443 17.7936ZM19.2466 12.3658V12.4245C19.3822 13.8558 19.1536 15.2982 18.5821 16.6176C19.2767 15.5775 19.7228 14.3916 19.8859 13.1516C20.0491 11.9117 19.9249 10.6508 19.5231 9.46653C19.2291 8.93727 18.8761 8.44918 18.4763 7.99636C19.0213 9.14831 19.2968 10.4093 19.2819 11.6835C19.3477 11.7868 19.3799 11.908 19.3735 12.0303C19.3672 12.1525 19.3228 12.2698 19.2466 12.3658ZM10.8196 3.92102C10.8607 3.97394 10.9078 4.02098 10.9608 4.06803C10.0197 4.28562 9.14951 4.6561 8.36143 5.15008C7.35519 5.45207 6.41394 5.93864 5.58572 6.58498C6.94354 5.08379 8.80679 4.13542 10.8196 3.92102ZM4.84475 9.6018C4.60952 10.3193 4.45662 11.0719 4.42134 11.8541C4.33297 11.7436 4.2254 11.65 4.10378 11.5777C4.26498 10.89 4.51402 10.2259 4.84475 9.6018ZM5.30344 8.51386C4.65421 9.40816 4.18669 10.4211 3.92736 11.4954C3.79066 11.4413 3.64505 11.4135 3.49806 11.4131H3.4863C3.60391 9.94882 4.10965 8.5903 4.89768 7.44944C5.71512 6.62357 6.6968 5.97848 7.77923 5.55585C6.73799 6.33888 5.89087 7.35099 5.30344 8.51386ZM3.69213 13.7477L3.63332 13.7595C3.65096 13.8771 3.68037 13.9947 3.70976 14.1065L3.69213 13.7536V13.7477ZM4.18611 8.27863C3.6825 9.25981 3.37867 10.3312 3.29224 11.4308C3.04438 11.476 2.81762 11.5997 2.64536 11.7835C2.88059 10.4781 3.41573 9.28424 4.18611 8.27274V8.27863ZM3.43338 13.7654C3.17544 13.7507 2.92951 13.6515 2.73357 13.4831C2.90411 14.2064 3.16874 14.8944 3.51571 15.5296C3.61849 15.5325 3.71872 15.5621 3.80643 15.6157C3.89414 15.6694 3.96625 15.7451 4.01556 15.8354C3.95677 15.6178 3.89795 15.4002 3.8509 15.1768C3.67448 14.724 3.53334 14.2535 3.43338 13.7654ZM2.51597 13.3831C2.68064 14.1477 2.95116 14.8827 3.30988 15.5589C3.22889 15.5864 3.15483 15.631 3.09288 15.69C3.03092 15.7488 2.98257 15.8206 2.95116 15.9001C2.67586 15.0888 2.52902 14.2396 2.51597 13.3831ZM3.49806 16.7057C3.41045 16.7052 3.32404 16.6851 3.24519 16.6469C4.26255 18.8816 6.25024 20.587 8.6731 21.2338C6.93867 20.4411 5.51879 19.0916 4.63893 17.3997C4.38018 17.1232 4.13906 16.835 3.9156 16.5293C3.86113 16.5849 3.79618 16.6291 3.72451 16.6593C3.65283 16.6896 3.57587 16.7054 3.49806 16.7057ZM4.08613 16.1177C4.08659 16.2029 4.06853 16.2871 4.03321 16.3647L4.34488 16.7763C4.24946 16.5605 4.16313 16.3407 4.08613 16.1177ZM17.2884 18.3877C17.1355 18.5817 16.9709 18.7698 16.7944 18.9522C16.7707 18.9175 16.7451 18.8841 16.718 18.8521C16.912 18.7052 17.106 18.5523 17.2884 18.3877ZM11.7017 20.3047C12.7484 20.3047 13.7541 20.1107 14.6773 19.7578C14.6536 19.5053 14.7113 19.2519 14.842 19.0345C13.3319 19.8512 11.6091 20.1896 9.90214 20.0048C10.1198 20.0871 10.3433 20.1635 10.5726 20.2283C10.9431 20.2813 11.3195 20.3047 11.7017 20.3047ZM17.9177 17.4878C17.5177 17.9465 17.0649 18.3582 16.5709 18.7227C16.3345 18.5367 16.0356 18.4483 15.7359 18.4758C17.4432 17.2601 18.6378 15.4536 19.0879 13.4067C19.0644 14.8944 18.635 16.2882 17.9118 17.4878H17.9177ZM14.8772 20.3106C14.8008 20.2047 14.748 20.0754 14.7126 19.946C13.8305 20.2813 12.8778 20.4753 11.884 20.4928C12.8862 20.6147 13.9022 20.555 14.8831 20.3165L14.8772 20.3106ZM14.6538 20.5635C13.1553 21.3498 11.4517 21.6575 9.77275 21.4455C7.83216 20.8517 6.18555 19.5637 5.13291 17.8819C5.8387 18.5155 6.64575 19.0264 7.52048 19.3932C8.43199 19.9108 9.44933 20.2695 10.5314 20.4164C11.8727 20.8028 13.2884 20.8533 14.6538 20.5635ZM9.16707 19.8931L9.03768 19.8696L9.273 19.946L9.16707 19.8931ZM4.31548 16.147C4.80677 17.0357 5.4542 17.8285 6.22672 18.4876C5.70333 18.1407 5.227 17.7407 4.7977 17.2879C4.60952 16.9233 4.44486 16.541 4.31548 16.147ZM16.8297 5.65582C17.3412 6.17332 17.7883 6.75552 18.1529 7.38476C18.5056 7.71996 18.8233 8.09045 19.1056 8.47857C18.5655 7.38065 17.788 6.41649 16.8297 5.65582Z" fill="#353535"/>
</svg>

<svg xmlns="http://www.w3.org/2000/svg" width="24" height="24" fill="none" viewBox="0 0 24 24">
    <path fill="#353535" fill-rule="evenodd" d="M12.884 3.41a1.177 1.177 0 1 0-2.33-.253 8.5 8.5 0 0 0-4.733 1.605.588.588 0 1 0-.841.7 8.41 8.41 0 0 0-2.623 6.845c-.038.15-.046.306-.023.459l-.012.482a8.47 8.47 0 0 0 7.41 8.386 8.56 8.56 0 0 0 9.803-3.764l.135.012a.883.883 0 0 0 .635-1.494 8.4 8.4 0 0 0 .93-5.569.588.588 0 1 0-.289-1.14 8.4 8.4 0 0 0-1.805-3.088.59.59 0 0 0-.418-1.059.59.59 0 0 0-.423.265 8.46 8.46 0 0 0-3.776-1.788 8.3 8.3 0 0 0-1.64-.6m5.334 2.57a8.3 8.3 0 0 0-3.04-1.624c.14.083.281.177.423.27a8.44 8.44 0 0 1 4.092 4.764 8.45 8.45 0 0 1 .806 6.169 8.2 8.2 0 0 0 .541-4.752.588.588 0 0 1-.264-1.04 8.25 8.25 0 0 0-1.817-3.088.588.588 0 0 1-.741-.706zM5.262 5.531h-.07a8.22 8.22 0 0 0-2.67 5.881 8.43 8.43 0 0 1 2.235-4.087 8.42 8.42 0 0 1 5.94-3.587 1.2 1.2 0 0 1-.13-.394 8.3 8.3 0 0 0-4.717 1.64.59.59 0 0 1-.588.547M20.1 16.23a8.27 8.27 0 0 0-.123-5.798 8.42 8.42 0 0 1-1.905 7.175 8.4 8.4 0 0 1-1.17 1.517q.076.157.111.34a8.4 8.4 0 0 0 2.135-1.758.882.882 0 0 1 .952-1.476m-.788 1.576a8.5 8.5 0 0 1-2.293 1.87 1.174 1.174 0 0 1-1.336 1.127 1.2 1.2 0 0 1-.593-.262 8.46 8.46 0 0 1-4.222 1.158 8.34 8.34 0 0 0 8.48-3.88zM12.761 3.75l.07-.158q.493.122.958.305l-.317-.029a10 10 0 0 0-.706-.118zm-1.589.47a1.18 1.18 0 0 0 1.353-.175q.462-.02.923.011a8.5 8.5 0 0 1 2.053.741l.235.165a.88.88 0 0 0-.941.423 8.5 8.5 0 0 0-2.105-.382 8.5 8.5 0 0 0-3.64-.03 8.2 8.2 0 0 1 2.122-.758zm5.264 1.606a.9.9 0 0 0-.07-.352c.476.435.905.917 1.27 1.452A8.5 8.5 0 0 0 16.4 6.08a1 1 0 0 0 .036-.253M18 7.502a8.4 8.4 0 0 0-1.676-1.246.86.86 0 0 1-.312.323 8.45 8.45 0 0 1 3.076 4.863A8.2 8.2 0 0 0 18 7.502m-4.228-2.175c.317.058.635.14.94.235a1 1 0 0 0-.035.164 8 8 0 0 0-.905-.4m-1.112-.13a8 8 0 0 1 2.017.747.882.882 0 0 0 1.141.723 8.25 8.25 0 0 1 3.07 4.752.586.586 0 0 0-.688.582.587.587 0 0 0 .84.53 8.28 8.28 0 0 1-6.42 7.134 8.3 8.3 0 0 1-3.388.046 8.3 8.3 0 0 1-1.93-1.312.587.587 0 0 0-.075-1.073.59.59 0 0 0-.706.256 8.2 8.2 0 0 1-1.9-4.646 1.18 1.18 0 0 0-.023-.758 8.2 8.2 0 0 1 .87-3.564c.459-.624 1-1.188 1.611-1.664a.588.588 0 1 0 .959-.647 8.33 8.33 0 0 1 4.622-1.106m-4.793.982a8.44 8.44 0 0 1 3.676-1.158 8.4 8.4 0 0 0-3.1.306 8.2 8.2 0 0 0-2.375 2.275c.294-.311.617-.594.959-.858v-.036a.588.588 0 0 1 .84-.529M6.444 17.794a8.4 8.4 0 0 1-1.981-4.529 1.18 1.18 0 0 1-.583.436q.018.733.16 1.423a8.26 8.26 0 0 0 3.569 4.099c.294.123.6.235.911.317a8.5 8.5 0 0 1-1.435-1.07h-.058a.59.59 0 0 1-.583-.676m12.803-5.428v.059a8.5 8.5 0 0 1-.665 4.193 8.16 8.16 0 0 0 .941-7.151 8.3 8.3 0 0 0-1.047-1.47 8.4 8.4 0 0 1 .806 3.687.59.59 0 0 1-.035.682M10.82 3.92q.061.078.14.147A8.5 8.5 0 0 0 8.362 5.15a8.5 8.5 0 0 0-2.775 1.435 8.23 8.23 0 0 1 5.234-2.664m-5.975 5.68a8.4 8.4 0 0 0-.424 2.253 1.2 1.2 0 0 0-.317-.276c.161-.688.41-1.352.74-1.976m.458-1.087a8.5 8.5 0 0 0-1.376 2.981 1.2 1.2 0 0 0-.429-.082h-.012A8.1 8.1 0 0 1 4.898 7.45a8.3 8.3 0 0 1 2.881-1.893 8.5 8.5 0 0 0-2.476 2.958m-1.61 5.234-.06.011c.018.118.047.236.077.348l-.018-.353zm.493-5.47a8.3 8.3 0 0 0-.894 3.153 1.18 1.18 0 0 0-.647.353 8.2 8.2 0 0 1 1.541-3.511zm-.753 5.487a1.18 1.18 0 0 1-.7-.282c.171.723.436 1.411.783 2.047a.59.59 0 0 1 .5.305c-.06-.217-.118-.435-.165-.658a8.7 8.7 0 0 1-.418-1.412m-.917-.382c.165.765.435 1.5.794 2.176a.6.6 0 0 0-.359.341 8.2 8.2 0 0 1-.435-2.517m.982 3.323a.6.6 0 0 1-.253-.06 8.34 8.34 0 0 0 5.428 4.588A8.56 8.56 0 0 1 4.64 17.4a9 9 0 0 1-.723-.87.6.6 0 0 1-.418.176m.588-.588c0 .085-.017.17-.053.247l.312.411a8 8 0 0 1-.259-.658m13.202 2.27a7 7 0 0 1-.494.564 1 1 0 0 0-.076-.1c.194-.147.388-.3.57-.464m-5.586 1.917a8.3 8.3 0 0 0 2.975-.547 1.2 1.2 0 0 1 .165-.723 8.47 8.47 0 0 1-4.94.97q.327.125.67.223.557.078 1.13.077m6.216-2.817c-.4.459-.853.87-1.347 1.235a1.18 1.18 0 0 0-.835-.247 8.45 8.45 0 0 0 3.352-5.07 8.13 8.13 0 0 1-1.176 4.082zm-3.04 2.823a1.1 1.1 0 0 1-.165-.365 8.4 8.4 0 0 1-2.829.547 8.4 8.4 0 0 0 3-.176zm-.224.253a8.27 8.27 0 0 1-4.881.881 8.4 8.4 0 0 1-4.64-3.563 8.5 8.5 0 0 0 2.387 1.511 8.4 8.4 0 0 0 3.011 1.023 8.5 8.5 0 0 0 4.123.148m-5.487-.67-.13-.024.236.076zm-4.852-3.747a8.5 8.5 0 0 0 1.912 2.34q-.785-.519-1.43-1.2a8 8 0 0 1-.482-1.14M16.83 5.656a8.6 8.6 0 0 1 1.323 1.729 8 8 0 0 1 .953 1.094 8.3 8.3 0 0 0-2.276-2.823" clip-rule="evenodd"/>
</svg>
